icons/Device/gamepad-line.svg

<svg viewBox="0 0 24 24" xmlns="http://www.w3.org/2000/svg"><path d="M17 4C20.3137 4 23 6.68629 23 10V14C23 17.3137 20.3137 20 17 20H7C3.68629 20 1 17.3137 1 14V10C1 6.68629 3.68629 4 7 4H17ZM17 6H7C4.8578 6 3.10892 7.68397 3.0049 9.80036L3 10V14C3 16.1422 4.68397 17.8911 6.80036 17.9951L7 18H17C19.1422 18 20.8911 16.316 20.9951 14.1996L21 14V10C21 7.8578 19.316 6.10892 17.1996 6.0049L17 6ZM10 9V11H12V13H9.999L10 15H8L7.999 13H6V11H8V9H10ZM18 13V15H16V13H18ZM16 9V11H14V9H16Z"/></svg>

<svg xmlns="http://www.w3.org/2000/svg" viewBox="0 0 24 24">
    <g>
        <path fill="none" d="M0 0h24v24H0z"/>
        <path fill-rule="nonzero" d="M17 4a6 6 0 0 1 6 6v4a6 6 0 0 1-6 6H7a6 6 0 0 1-6-6v-4a6 6 0 0 1 6-6h10zm0 2H7a4 4 0 0 0-3.995 3.8L3 10v4a4 4 0 0 0 3.8 3.995L7 18h10a4 4 0 0 0 3.995-3.8L21 14v-4a4 4 0 0 0-3.8-3.995L17 6zm-7 3v2h2v2H9.999L10 15H8l-.001-2H6v-2h2V9h2zm8 4v2h-2v-2h2zm-2-4v2h-2V9h2z"/>
    </g>
</svg>
